!!!ONR: No. 20
!! From Harold Courlander, "Haiti Singing"
!! Chapel Hill: University of North Carolina Press, 1939
!! Copyright University of North Carolina Press
!!!ENC: D. Huron
**kern
*clefG2
*k[]
*M2/4
=1-
4r
8a
8cc
=2
6a
6a
6g
=3
4e
8cc
8a
=4
[2cc
=5
4cc]
8g
8a
=6
6g
6g
6e
=7
4c
8e
8c
=8
2e
=9
8e
8g
8e
8e
=10
6d
6c
[6d
=11
8d]
8A
8c
8c
=12
6e
6e
6e
=13
8e
8g
8e
8e
=14
6d
6c
[6d
=15
8d]
8A
8G
8A
=16
6c
6c
[6c
=17
4c
8a
8cc
=18
6a
6a
6g
=19
4e
8cc
8a
=20
[2cc
=21
4cc]
8g
8a
=22
6g
6g
6e
=23
4c
8e
8c
=24
2e
=25
8e
8g
8e
8e
=26
6d
6c
[6d
=27
8d]
8A
8c
8c
=28
6d
6d
6d
=29
8e
8g
8e
8e
=30
6d
6c
[6d
=31
8d]
8A
8G
8A
=32
6c
6c
[6c
=33
2c]
=34
8cc
8a
8cc
8a
=35
4g
8e
8g
=36
8c
8A
8c
8c
=37
2e
=38
8cc
8a
8cc
8a
=39
4g
8e
8g
=40
8c
16r
16A
8c
8c
=41
2c
==
*-
